assets/illustrations/multisize/20/ppsx.svg

<?xml version="1.0" encoding="utf-8"?>
<!-- Generator: Adobe Illustrator 21.1.0, SVG Export Plug-In . SVG Version: 6.00 Build 0)  -->
<svg version="1.1" xmlns="http://www.w3.org/2000/svg" xmlns:xlink="http://www.w3.org/1999/xlink" x="0px" y="0px"
	 viewBox="0 0 20 20" enable-background="new 0 0 20 20" xml:space="preserve">
<g id="TEMPLATE" display="none">
	<g display="inline">
		<path fill="#D0D0D0" d="M20,0v20H0V0H20 M21-1h-1H0h-1v1v20v1h1h20h1v-1V0V-1L21-1z"/>
	</g>
	<g display="inline" opacity="0.1">
		<path fill="#FF3A6D" d="M19,1v18H1V1H19 M20,0H0v20h20V0L20,0z"/>
	</g>
</g>
<g id="ICONS">
	<g>
		<rect x="2" y="15" fill="#FFFFFF" width="1" height="1"/>
		<polygon fill="#FFFFFF" points="15,1 4,1 4,3 3,3 2,3 2,4 3,4 3,10 5,10 5,11 5,12 5,13 4,13 4,14 3,14 3,15 4,15 4,19 5,19 5,18 
			7,18 7,19 18,19 18,4 		"/>
	</g>
	<g>
		<rect x="2" y="15" fill="#D04727" width="1" height="1"/>
		<polygon fill="#D04727" points="5,14 5,13 4,13 4,14 3,14 3,15 4,15 4,19 5,19 5,15 6,15 6,14 		"/>
		<rect x="6" y="15" fill="#D04727" width="1" height="1"/>
	</g>
	<g>
		<path fill="#808080" d="M11,4v5H4V4H11 M12,3H3v7h9V3L12,3z"/>
	</g>
	<rect x="2" y="3" fill="#808080" width="11" height="1"/>
	<path fill="#949494" d="M15,1H4v2h1V2h9v3h3v13H7v1h11V4L15,1z M15,4V2.5L16.5,4H15z"/>
	<rect x="5" y="11" fill="#808080" width="5" height="1"/>
	<rect x="7" y="9" fill="#808080" width="1" height="2"/>
	<rect x="5" y="5" fill="#C8C8C8" width="1" height="3"/>
	<rect x="7" y="6" fill="#F5BA9D" width="1" height="2"/>
	<rect x="9" y="7" fill="#C8C8C8" width="1" height="1"/>
</g>
</svg>

<svg id="9e588d07-3521-4084-8326-c10a2e1c9f05" data-name="ICONS" xmlns="http://www.w3.org/2000/svg" viewBox="0 0 20 20"><title>FileTypeIcons_Master_All_NEW</title><rect x="2" y="15" width="1" height="1" fill="#fff"/><polygon points="15 1 4 1 4 3 3 3 2 3 2 4 3 4 3 10 5 10 5 11 5 12 5 13 4 13 4 14 3 14 3 15 4 15 4 19 5 19 5 18 7 18 7 19 18 19 18 4 15 1" fill="#fff"/><rect x="2" y="15" width="1" height="1" fill="#d04727"/><polygon points="5 14 5 13 4 13 4 14 3 14 3 15 4 15 4 19 5 19 5 15 6 15 6 14 5 14" fill="#d04727"/><rect x="6" y="15" width="1" height="1" fill="#d04727"/><path d="M11,4V9H4V4h7m1-1H3v7h9V3Z" fill="gray"/><rect x="2" y="3" width="11" height="1" fill="gray"/><path d="M15,1H4V3H5V2h9V5h3V18H7v1H18V4Zm0,3V2.5L16.5,4Z" fill="#949494"/><rect x="5" y="11" width="5" height="1" fill="gray"/><rect x="7" y="9" width="1" height="2" fill="gray"/><rect x="5" y="5" width="1" height="3" fill="#c8c8c8"/><rect x="7" y="6" width="1" height="2" fill="#f5ba9d"/><rect x="9" y="7" width="1" height="1" fill="#c8c8c8"/></svg>
